X: 23449
T: Let Me Into The Parlour
R: jig
M: 6/8
K: Amajor
c2d|:e2E EDE|F2G A2c|BcB EFG|AGF E2c|
e2E EDE|F2G A2c|BcB EFG|1 A3 A2c:|2 A3 ABc||
|:d2d ded|c2c cBA|B2B Bcd|e2c ABc|
d2d ded|c2c cBA|BcB Bcd|1 e3 e2c:|2 e3 c2d||

